src/assets/outline/Folder.svg

<?xml version="1.0" encoding="UTF-8"?>
<svg width="24" height="24" viewBox="0 0 24 24" xmlns="http://www.w3.org/2000/svg">
 <path d="m17 22.75h-10c-4.41 0-5.75-1.34-5.75-5.75v-10c0-4.41 1.34-5.75 5.75-5.75h1.5c1.75 0 2.3 0.57 3 1.5l1.5 2c0.33 0.44 0.38 0.5 1 0.5h3c4.41 0 5.75 1.34 5.75 5.75v6c0 4.41-1.34 5.75-5.75 5.75zm-10-20c-3.57 0-4.25 0.68-4.25 4.25v10c0 3.57 0.68 4.25 4.25 4.25h10c3.57 0 4.25-0.68 4.25-4.25v-6c0-3.57-0.68-4.25-4.25-4.25h-3c-1.28 0-1.7-0.44-2.2-1.1l-1.5-2c-0.52-0.69-0.67-0.9-1.8-0.9h-1.5z"/>
</svg>

<svg width="24" height="24" viewBox="0 0 24 24"  xmlns="http://www.w3.org/2000/svg">
<path d="M17 22.75H7C2.59 22.75 1.25 21.41 1.25 17V7C1.25 2.59 2.59 1.25 7 1.25H8.5C10.25 1.25 10.8 1.82 11.5 2.75L13 4.75C13.33 5.19 13.38 5.25 14 5.25H17C21.41 5.25 22.75 6.59 22.75 11V17C22.75 21.41 21.41 22.75 17 22.75ZM7 2.75C3.43 2.75 2.75 3.43 2.75 7V17C2.75 20.57 3.43 21.25 7 21.25H17C20.57 21.25 21.25 20.57 21.25 17V11C21.25 7.43 20.57 6.75 17 6.75H14C12.72 6.75 12.3 6.31 11.8 5.65L10.3 3.65C9.78 2.96 9.63 2.75 8.5 2.75H7Z" />
</svg>
